X: 1
T: der Trisker Rebns Nign  [Fm]
O: trad.
Z: 2013 John Chambers <jc:trillian.mit.edu>
N: From Glenn Dickson's transcription
M: 2/4
L: 1/16
K: Fm
%%indent 100
C2 |\
"Fm"FFFF FAAC | F6 C2 |\
FFFF FAAC | F6 C2 |
FFFF "Bbm"FBAG | "Fm"A8 |\
"C7"AGAG ABAG | "Fm"F6 :|\
|: E2 |\
"Ab"ABcd c3B | "Bbm"BcBc B3A |
"Eb7"A2B2 AGFG | "Ab"A4 e4 |\
ABcd c3B | "Bbm"BFFF F4 |\
"Fm"FAAF "C7"ABAG | "Fm"F6 :|
|: c2 |\
"Fm"f6 c2 | f6 c2 |\
f3c f3c | f3c f2c2 |\
fccf fee=d | e=d c6 |
c=BcB cBAB | c6 F2 |\
"Bbm"B=ABA BdcB | "Fm"AG F4 C2 |\
"C7"AGAG AGF=E | "Fm"F6 :|
